X:1
T: Riddrie
P:version Winston Fitzgerald
R:Strathspey
Q: 128
K:A
M:4/4
L:1/16
|:f2|e3d c3A df3 f4|e3d c3A FB3 GE3|e3d c3A df3 f4|((3e2f2g2) ac3 B4 A2f2|
e3d c3A df3 f4|e3d c3A FB3 GE3|e3d c3A df3 f4|((3e2f2g2) ac3 B4 A4|
e3d ca3 fd3 d4|f3e ^d3b ge3 e3f|e3d ca3 ((3f2e2d2) ((3c2B2A2) |((3G2A2B2) ((3E2c2d2) ((3e2f2e2) ((3d2c2B2) |
e3d c3a fd3 d4|f3e ^d3b ge3 e3f|e3d ca3 ((3f2e2d2) ((3c2B2A2) |((3G2A2B2) ((3E2e2d2) cA3 A2:|
